svg/emoji_u1f971.svg

<?xml version="1.0" encoding="UTF-8" standalone="no"?><!DOCTYPE svg PUBLIC "-//W3C//DTD SVG 1.1//EN" "http://www.w3.org/Graphics/SVG/1.1/DTD/svg11.dtd"><svg width="100%" height="100%" viewBox="0 0 534 534" version="1.1" xmlns="http://www.w3.org/2000/svg" xmlns:xlink="http://www.w3.org/1999/xlink" xml:space="preserve" xmlns:serif="http://www.serif.com/" style="fill-rule:evenodd;clip-rule:evenodd;stroke-linecap:round;stroke-linejoin:round;stroke-miterlimit:1.5;"><path d="M266.667,53.503c-260.042,-0 -265.25,264.162 -265.25,321.829c-0,57.75 119.125,104.5 266.166,104.5c147,-0 266.167,-46.75 266.167,-104.5c0,-57.667 -7.083,-321.829 -267.083,-321.829Z" style="fill:#fcc21b;fill-rule:nonzero;"/><path d="M217.944,201.679c0,-0 -50.654,-8.56 -87.636,24.713" style="fill:none;stroke:#333;stroke-width:20.83px;"/><path d="M343.516,276.629c-18.803,-6.768 -61.762,18.286 -86.559,18.286c-24.797,-0 -24.283,-1.881 -52.135,-1.881c-27.853,0 -50.417,28.528 -50.417,63.738c0,35.21 22.564,63.737 50.417,63.737c27.852,0 41.229,-14.949 61.845,-14.949c20.616,0 33.993,14.949 61.845,14.949c27.852,0 50.416,-28.57 50.416,-63.78c0,-35.167 -5.033,-69.164 -35.412,-80.1Z" style="fill:#ed6c30;fill-rule:nonzero;"/><path d="M119.084,321.079c32.018,-2.794 14.136,38.413 15.521,52.562c0.298,3.142 1.996,6.725 3.964,4.218c0.81,-1.033 61.909,-64.38 61.909,-64.38c6.632,-6.979 16.237,-8.66 23.207,-2.064c6.969,6.596 5.841,16.293 -0.791,23.273l-45.516,49.349l62.716,-64.557c6.632,-6.979 16.237,-8.66 23.206,-2.064c6.97,6.596 5.841,16.294 -0.791,23.273l-61.455,66.509l51.181,-52.692c6.632,-6.979 16.237,-8.66 23.207,-2.064c6.97,6.596 5.841,16.294 -0.791,23.273l-50.015,54.437l31.357,-31.773c6.632,-6.98 16.237,-8.66 23.207,-2.065c6.97,6.596 4.426,14.926 -2.196,21.941c-0,0 -67.141,71.372 -74.669,78.048c-18.822,16.69 -67.199,26.819 -97.35,-1.091c-37.127,-34.388 -15.37,-78.807 -10.474,-95.454c3.846,-13.027 9.548,-26.668 12.073,-40.427c2.207,-12.045 3.054,-37.429 12.5,-38.252Z" style="fill:#fac036;stroke:#212121;stroke-width:12.5px;stroke-linecap:butt;stroke-miterlimit:2;"/><path d="M315.389,201.679c0,-0 50.654,-8.56 87.636,24.713" style="fill:none;stroke:#333;stroke-width:20.83px;"/></svg>

<?xml version="1.0" encoding="UTF-8" standalone="no"?>
<!DOCTYPE svg PUBLIC "-//W3C//DTD SVG 1.1//EN" "http://www.w3.org/Graphics/SVG/1.1/DTD/svg11.dtd">
<svg width="100%" height="100%" viewBox="0 0 128 128" version="1.1" xmlns="http://www.w3.org/2000/svg" xmlns:xlink="http://www.w3.org/1999/xlink" xml:space="preserve" xmlns:serif="http://www.serif.com/" style="fill-rule:evenodd;clip-rule:evenodd;stroke-linecap:round;stroke-linejoin:round;stroke-miterlimit:1.5;">
    <g id="g34359">
        <path id="path34357" d="M64.22,9.62C1.81,9.62 0.34,79.58 0.34,93.42C0.34,107.28 28.93,118.5 64.22,118.5C99.5,118.5 128.1,107.28 128.1,93.42C128.1,79.58 126.62,9.62 64.22,9.62Z" style="fill:rgb(252,194,27);fill-rule:nonzero;"/>
    </g>
    <g transform="matrix(0.2397,0,0,0.2397,0,0)">
        <path d="M217.944,201.679C217.944,201.679 167.29,193.119 130.308,226.392" style="fill:none;stroke:rgb(51,51,51);stroke-width:20.83px;"/>
    </g>
    <g transform="matrix(0.2397,0,0,0.2397,0,0)">
        <path d="M343.516,276.629C324.713,269.861 281.754,294.915 256.957,294.915C232.16,294.915 232.674,293.034 204.822,293.034C176.969,293.034 154.405,321.562 154.405,356.772C154.405,391.982 176.969,420.509 204.822,420.509C232.674,420.509 246.051,405.56 266.667,405.56C287.283,405.56 300.66,420.509 328.512,420.509C356.364,420.509 378.928,391.939 378.928,356.729C378.928,321.562 373.895,287.565 343.516,276.629Z" style="fill:rgb(237,108,48);fill-rule:nonzero;"/>
    </g>
    <g transform="matrix(0.2397,0,0,0.2397,0,0)">
        <path d="M119.084,321.079C151.102,318.285 133.22,359.492 134.605,373.641C134.903,376.783 136.601,380.366 138.569,377.859C139.379,376.826 200.478,313.479 200.478,313.479C207.11,306.5 216.715,304.819 223.685,311.415C230.654,318.011 229.526,327.708 222.894,334.688L177.378,384.037L240.094,319.48C246.726,312.501 256.331,310.82 263.3,317.416C270.27,324.012 269.141,333.71 262.509,340.689L201.054,407.198L252.235,354.506C258.867,347.527 268.472,345.846 275.442,352.442C282.412,359.038 281.283,368.736 274.651,375.715L224.636,430.152L255.993,398.379C262.625,391.399 272.23,389.719 279.2,396.314C286.17,402.91 283.626,411.24 277.004,418.255C277.004,418.255 209.863,489.627 202.335,496.303C183.513,512.993 135.136,523.122 104.985,495.212C67.858,460.824 89.615,416.405 94.511,399.758C98.357,386.731 104.059,373.09 106.584,359.331C108.791,347.286 109.638,321.902 119.084,321.079Z" style="fill:rgb(250,192,54);stroke:rgb(33,33,33);stroke-width:12.5px;stroke-linecap:butt;stroke-miterlimit:2;"/>
    </g>
    <g transform="matrix(0.2397,0,0,0.2397,0,0)">
        <path d="M315.389,201.679C315.389,201.679 366.043,193.119 403.025,226.392" style="fill:none;stroke:rgb(51,51,51);stroke-width:20.83px;"/>
    </g>
</svg>
